X: 3860
T: Black Pig, The
R: hornpipe
M: 4/4
K: Eminor
F|GEEG FDDF|GEEB edBA|GEE GFDDF|B,A,B,D E3F|
GEEG FDDF|GEEB edBA|GEEG FDDF|B,A,B,D E3B|
e^def gfeg|fefg afdf|gfga bgeg|defd e/e/eef|
gaef gabg|fade fgaf|gbfa efdB|eBAF E/E/EE2|

